X: 56
T: Trip to Tighnabruaich Waltz
C: Eric Scott
O: Princeton, New Jersey
%R: wltz
Z: Collected and edited 2014 by John Chambers <jc:trillian.mit.edu>
B: GEMS The Best of the Country Dance and Song Society Diamond Jubilee Music, Dance and Song Contest 1993 p.79 #2
M: 3/4
L: 1/4
K: G
% - - - - - - - - - - - - - - - - - - - - - - - - -
"D7"d |\
"G"b>ag | "D"fga | "Em"ged | "Bm"B2B |\
"G"B<dB | "Em"B<eB | "G"gbg | "D"a2 ||
d |\
"G"b>ag | "D"agf | "Em"ged | "C"e2e |\
"Em"gBe | "Bm"d>BA | "C"ABE | "Em"G2 !fine!|][K:=f][K:Dm]
G |\
"Am"A<cA | "Dm"A<dA | "AM/C"edc | "Em"ga=b |\
"F"c'a"Em/G"g | "Am"ea"G/B"g | "C"e/d/cg | "G"d2 ||
"A7"e |\
"Dm"f<dc | "Bb"f<dB | "Dm"a>g "Gm"f/g/ | "Am"e2e |\
"G"gf"A7"e | "Dm"a>fd | "Dm/F"A<d^c | "Dm"d2 "_D.C."[K:=B][K:G]|]
% - - - - - - - - - - - - - - - - - - - - - - - - -

